X: 20902
T: SALLY IN OUR ALLEY
Q: "Moderato"
%R: _
B: "Edinburgh Repository of Music" v.2 p.90 #2
F: http://digital.nls.uk/special-collections-of-printed-music/pageturner.cfm?id=87776133
Z: 2015 John Chambers <jc:trillian.mit.edu>
M: 3/4
L: 1/8
K: F
c |\
cf f2 {gf}ef | bg f2 ef | dc c3 B | Af2 z2c |\
cf f2 {gf}ef | bg f2 ef | (dc) c3 B | Af2 z2
c |\
cA c2 _e2 | dB d3 e | fc (bagf) | eg2 z2 c |\
BA G2 F2 | ba Ha2 {gba}Hgf | {fg}ad (fe)(dc) | c f3 z |]

%%sep 2 1 500
%%sep 1 1 500

